src/svg/uf1ea-newspaper-o.svg

<!-- Generated by IcoMoon.io -->
<svg version="1.1" xmlns="http://www.w3.org/2000/svg" width="37" height="32" viewBox="0 0 37 32">
<path d="M18.286 9.143h-6.857v6.857h6.857v-6.857zM20.571 20.571v2.286h-11.429v-2.286h11.429zM20.571 6.857v11.429h-11.429v-11.429h11.429zM32 20.571v2.286h-9.143v-2.286h9.143zM32 16v2.286h-9.143v-2.286h9.143zM32 11.429v2.286h-9.143v-2.286h9.143zM32 6.857v2.286h-9.143v-2.286h9.143zM4.571 24v-17.143h-2.286v17.143c0 0.625 0.518 1.143 1.143 1.143s1.143-0.518 1.143-1.143zM34.286 24v-19.429h-27.429v19.429c0 0.393-0.071 0.786-0.196 1.143h26.482c0.625 0 1.143-0.518 1.143-1.143zM36.571 2.286v21.714c0 1.893-1.536 3.429-3.429 3.429h-29.714c-1.893 0-3.429-1.536-3.429-3.429v-19.429h4.571v-2.286h32z"></path>
</svg>

<svg xmlns="http://www.w3.org/2000/svg" width="37" height="32"><path d="M18.286 9.143h-6.857V16h6.857V9.143zm2.285 11.428v2.286H9.142v-2.286h11.429zm0-13.714v11.429H9.142V6.857h11.429zM32 20.571v2.286h-9.143v-2.286H32zM32 16v2.286h-9.143V16H32zm0-4.571v2.286h-9.143v-2.286H32zm0-4.572v2.286h-9.143V6.857H32zM4.571 24V6.857H2.285V24c0 .625.518 1.143 1.143 1.143S4.571 24.625 4.571 24zm29.715 0V4.571H6.857V24c0 .393-.071.786-.196 1.143h26.482c.625 0 1.143-.518 1.143-1.143zm2.285-21.714V24a3.43 3.43 0 0 1-3.429 3.429H3.428A3.43 3.43 0 0 1-.001 24V4.571H4.57V2.285h32z"/></svg>
